X:128
T: ES STEHT EIN LIND IN JENEM THAL
N: E0067
O: Europa, Mitteleuropa, Deutschland
R: erzaehlendes Volks - Lied, Sage, Liebe
M: 3/4
L: 1/8
K: D
 | D2=F2G2 | A4_B2 | A4G2 | A4z2
A2A2A2 | =c4_B2 | A2G2G2 | =F4
A2 | G2A2_B2 | A4D2 | =F2E2D2 | =C4z2
G2G2G2 | =FEFGA2 | G2=F2E2 | D6

